casedrop/img/profile/icons/user-icon.svg

<svg width="49" height="55" viewBox="0 0 49 55" fill="none" xmlns="http://www.w3.org/2000/svg">
<path d="M24.0719 27.9558C16.3583 27.9558 10.1445 21.742 10.1445 14.0284C10.1445 6.31476 16.3583 0.101006 24.0719 0.101006C31.7855 0.101006 37.9993 6.31476 37.9993 14.0284C37.9993 21.742 31.7855 27.9558 24.0719 27.9558ZM24.0719 4.38636C18.7152 4.38636 14.4299 8.67171 14.4299 14.0284C14.4299 19.3851 18.7152 23.6704 24.0719 23.6704C29.4286 23.6704 33.714 19.3851 33.714 14.0284C33.714 8.67171 29.4286 4.38636 24.0719 4.38636Z" fill="white"/>
<path d="M5.21851 44.8829V54.8999H0.933594V44.8829C0.933594 36.4192 11.3254 29.8845 24.503 29.8845C37.6807 29.8845 48.0724 36.4192 48.0724 44.8829V54.8999H43.7875V44.8829C43.7875 39.0978 35.002 34.1695 24.503 34.1695C14.004 34.1695 5.21851 39.0978 5.21851 44.8829Z" fill="white"/>
</svg>

<svg width="49" height="55" fill="none" xmlns="http://www.w3.org/2000/svg"><path d="M24.072 27.956a13.9 13.9 0 01-13.927-13.928A13.9 13.9 0 0124.072.101a13.9 13.9 0 0113.927 13.927 13.9 13.9 0 01-13.927 13.928zm0-23.57a9.602 9.602 0 00-9.642 9.642 9.602 9.602 0 009.642 9.642 9.602 9.602 0 009.642-9.642 9.602 9.602 0 00-9.642-9.642zM5.219 44.883V54.9H.934V44.883c0-8.464 10.391-14.999 23.569-14.999 13.178 0 23.57 6.535 23.57 14.999V54.9h-4.285V44.883c0-5.785-8.786-10.714-19.285-10.714S5.219 39.099 5.219 44.883z" fill="#fff"/></svg>
